X:1
T:Alibaba
C:Unknown
Z:Public Domain
L:1/8
M:2/4
K:C
V:1 treble nm="Voice"
%%MIDI program 52
V:1
 EE EE | F2 E2 | C4 | EE EE | GG FE | D4 | D D2 D | F2 EF | E4 | DD DD | F2 E2 | C4 |] %12
w: A- li- ba- ba|ví- gan|él,|Te- ve- gel a|te- ve te- te-|jén,|Sze- mé- be|nem süt a|nap,|Nincs is ná- la|bol- do-|gabb.|

